X:1091
T:Andie Phaddie's
R:reel
S:Frankie Kennedy on Youtube
Z:id:hn-reel-1091
M:C|
L:1/8
K:Ador
EAAB c2BA | GBdc BG~G2 | EA~A2 cABA | GBdB ~A3G |
EAAB cABA | GBdc BG~G2 | EA~A2 =FAcA | BAGB ABce ||
|: a2ag edBc | d2gd BG~G2 | ~a3g edBc | d2gd BA~A2 |
abag edBc | d2gd BG~G2 | EA~A2 cABA |1 GBdB ABce :|2 GBdB ~A3G ||

